logos/tv.atv.svg

<?xml version="1.0" encoding="UTF-8" standalone="no"?>
<!-- Created with Inkscape (http://www.inkscape.org/) -->

<svg
   xmlns:dc="http://purl.org/dc/elements/1.1/"
   xmlns:cc="http://creativecommons.org/ns#"
   xmlns:rdf="http://www.w3.org/1999/02/22-rdf-syntax-ns#"
   xmlns:svg="http://www.w3.org/2000/svg"
   xmlns="http://www.w3.org/2000/svg"
   xmlns:inkscape="http://www.inkscape.org/namespaces/inkscape"
   version="1.0"
   width="1024"
   height="385"
   id="svg2">
  <defs
     id="defs4" />
  <metadata
     id="metadata7">
    <rdf:RDF>
      <cc:Work
         rdf:about="">
        <dc:format>image/svg+xml</dc:format>
        <dc:type
           rdf:resource="http://purl.org/dc/dcmitype/StillImage" />
      </cc:Work>
    </rdf:RDF>
  </metadata>
  <g
     id="layer1">
    <g
       transform="matrix(7.6666669,0,0,7.6666669,-3944.2973,-833.6794)"
       id="g3761">
      <path
         d="m 532.83134,113.78344 -16.5625,33.44625 c -1.94125,3.91875 -0.33625,8.67 3.5825,10.61125 3.92,1.94125 8.67125,0.33625 10.6125,-3.5825 0,0 4.8175,-10.6725 9.44875,-20.0225 4.60625,9.345 9.39625,20.00625 9.39625,20.00625 1.93375,3.92375 6.6825,5.53625 10.605,3.6025 3.92375,-1.93375 5.53625,-6.6825 3.6025,-10.605 l -16.48375,-33.4425 c -1.3325,-2.7025 -4.0825,-4.41625 -7.09625,-4.41875 -3.01375,-0.002 -5.7675,1.705 -7.105,4.405"
         inkscape:connector-curvature="0"
         id="path2982"
         style="fill:#dc181d;fill-opacity:1;fill-rule:nonzero;stroke:none" />
      <path
         d="m 642.73759,110.20094 c -3.91875,-1.94125 -8.67,-0.3375 -10.61125,3.5825 0,0 -4.81875,10.6725 -9.45,20.02375 -4.605,-9.345 -9.39625,-20.0075 -9.39625,-20.0075 -1.4025,-2.84625 -4.28625,-4.4675 -7.2625,-4.41 -0.0163,0 -0.0325,-0.002 -0.0475,-0.002 l -43.05375,0 c -4.34,0 -7.85875,3.51875 -7.85875,7.85875 0,4.34 3.51875,7.85875 7.85875,7.85875 l 12.05375,0 0,25.5775 c 0,4.37375 3.54625,7.92 7.92,7.92 4.37375,0 7.92,-3.54625 7.92,-7.92 l 0,-25.5775 10.38375,0 14.3625,29.14 c 1.33125,2.70375 4.0825,4.41625 7.09625,4.41875 3.01375,0.002 5.7675,-1.705 7.105,-4.405 l 16.5625,-33.445 c 1.94125,-3.92 0.3375,-8.67 -3.5825,-10.6125"
         inkscape:connector-curvature="0"
         id="path2984"
         style="fill:#000000;fill-opacity:1;fill-rule:nonzero;stroke:none" />
    </g>
  </g>
</svg>

<?xml version="1.0" encoding="UTF-8" standalone="no"?>
<!-- Created with Inkscape (http://www.inkscape.org/) -->
<svg
   xmlns:dc="http://purl.org/dc/elements/1.1/"
   xmlns:cc="http://creativecommons.org/ns#"
   xmlns:rdf="http://www.w3.org/1999/02/22-rdf-syntax-ns#"
   xmlns:svg="http://www.w3.org/2000/svg"
   xmlns="http://www.w3.org/2000/svg"
   xmlns:sodipodi="http://sodipodi.sourceforge.net/DTD/sodipodi-0.dtd"
   xmlns:inkscape="http://www.inkscape.org/namespaces/inkscape"
   width="1024"
   height="385"
   id="svg2"
   sodipodi:version="0.32"
   inkscape:version="0.46"
   version="1.0"
   sodipodi:docname="ATV.svg"
   inkscape:output_extension="org.inkscape.output.svg.inkscape">
  <defs
     id="defs4" />
  <sodipodi:namedview
     id="base"
     pagecolor="#ffffff"
     bordercolor="#666666"
     borderopacity="1.0"
     inkscape:pageopacity="0.0"
     inkscape:pageshadow="2"
     inkscape:zoom="0.5"
     inkscape:cx="655.14283"
     inkscape:cy="398.56246"
     inkscape:document-units="px"
     inkscape:current-layer="layer1"
     showgrid="false"
     inkscape:window-width="1024"
     inkscape:window-height="718"
     inkscape:window-x="-8"
     inkscape:window-y="-8" />
  <metadata
     id="metadata7">
    <rdf:RDF>
      <cc:Work
         rdf:about="">
        <dc:format>image/svg+xml</dc:format>
        <dc:type
           rdf:resource="http://purl.org/dc/dcmitype/StillImage" />
      </cc:Work>
    </rdf:RDF>
  </metadata>
  <g
     inkscape:label="Ebene 1"
     inkscape:groupmode="layer"
     id="layer1">
    <g
       id="g3761"
       transform="matrix(7.6666669,0,0,7.6666669,-3944.2973,-833.6794)">
      <path
         id="path2982"
         style="fill:#dc181d;fill-opacity:1;fill-rule:nonzero;stroke:none"
         d="M 532.83134,113.78344 L 516.26884,147.22969 C 514.32759,151.14844 515.93259,155.89969 519.85134,157.84094 C 523.77134,159.78219 528.52259,158.17719 530.46384,154.25844 C 530.46384,154.25844 535.28134,143.58594 539.91259,134.23594 C 544.51884,143.58094 549.30884,154.24219 549.30884,154.24219 C 551.24259,158.16594 555.99134,159.77844 559.91384,157.84469 C 563.83759,155.91094 565.45009,151.16219 563.51634,147.23969 L 547.03259,113.79719 C 545.70009,111.09469 542.95009,109.38094 539.93634,109.37844 C 536.92259,109.37594 534.16884,111.08344 532.83134,113.78344" />
      <path
         id="path2984"
         style="fill:#000000;fill-opacity:1;fill-rule:nonzero;stroke:none"
         d="M 642.73759,110.20094 C 638.81884,108.25969 634.06759,109.86344 632.12634,113.78344 C 632.12634,113.78344 627.30759,124.45594 622.67634,133.80719 C 618.07134,124.46219 613.28009,113.79969 613.28009,113.79969 C 611.87759,110.95344 608.99384,109.33219 606.01759,109.38969 C 606.00134,109.38969 605.98509,109.38719 605.97009,109.38719 L 562.91634,109.38719 C 558.57634,109.38719 555.05759,112.90594 555.05759,117.24594 C 555.05759,121.58594 558.57634,125.10469 562.91634,125.10469 L 574.97009,125.10469 L 574.97009,150.68219 C 574.97009,155.05594 578.51634,158.60219 582.89009,158.60219 C 587.26384,158.60219 590.81009,155.05594 590.81009,150.68219 L 590.81009,125.10469 L 601.19384,125.10469 L 615.55634,154.24469 C 616.88759,156.94844 619.63884,158.66094 622.65259,158.66344 C 625.66634,158.66594 628.42009,156.95844 629.75759,154.25844 L 646.32009,120.81344 C 648.26134,116.89344 646.65759,112.14344 642.73759,110.20094" />
    </g>
  </g>
</svg>
